src/assets/svgs/Parallax-Rock-Right.svg

<svg xmlns="http://www.w3.org/2000/svg" width="1920" height="1080" fill="none" xmlns:v="https://vecta.io/nano"><mask id="A" maskUnits="userSpaceOnUse" x="-347" y="-589" width="2614" height="1846"><path d="M2266.11-588.13H-347v1844.22h2613.11V-588.13z" fill="#fff"/></mask><g mask="url(#A)"><path fill-rule="evenodd" d="M2102.06 1091.89l-291.58-6.02s-45.31-146.284-45.11-202.103c0-3.034.15-5.787.45-8.272 3.6-29.862 122.33 18.516 218.24 86.328 57.4 40.567 106.58 88.117 118 130.067z" fill="url(#B)"/><path fill-rule="evenodd" d="M1765.37 1085.87h-254.6s63.66-73.88 121.45-84.59c8.13-1.466 16.16-1.743 23.86-.36 35.75 6.38 66.34 33.22 86 55.08 14.71 16.31 23.29 29.87 23.29 29.87z" fill="url(#C)"/><path opacity=".6" fill-rule="evenodd" d="M1561.37 1066.57c1.53 10.43 11.07 16.4 24.96 19.29h-75.56s63.66-73.87 121.45-84.58h.18s-77.92 18.57-71.03 65.29zm204 19.29h-122.96c46.1-5.65 95.13-21.04 97.73-28.02.4-1.1 1.08-1.7 1.93-1.84 14.72 16.31 23.3 29.86 23.3 29.86zm336.69 6.03l-291.58-6.02s-45.31-146.284-45.11-202.103l.45-8.272s10.01 169.255 88.99 191.075 161.16-19.62 171.12-41.72c4.58-10.19-17.11-37.028-41.87-63.031 57.4 40.571 106.58 88.121 118 130.071z" fill="#6b8ec1"/><path opacity=".6" fill-rule="evenodd" d="M1791.49 1019.53s111.51-69.321 187.59-61.193l14.78 10.545s-101.19-32.034-198.37 65.338l-4-14.69zm-188.48-7.6s89.94 4.93 149.48 56.33l-6.57-7.9s-73.07-57.54-137.44-50.9l-5.47 2.47z" fill="#6b8ec1"/></g><defs><linearGradient id="B" x1="1933.72" y1="1091.88" x2="1933.72" y2="866.484" gradientUnits="userSpaceOnUse"><stop stop-color="#d3d3df"/><stop offset=".4" stop-color="#c6bec2"/><stop offset=".751" stop-color="#beb1b0"/><stop offset="1" stop-color="#bbaca9"/></linearGradient><linearGradient id="C" x1="1638.07" y1="1085.87" x2="1638.07" y2="1000.02" gradientUnits="userSpaceOnUse"><stop stop-color="#4ecfc8"/><stop offset=".078" stop-color="#5bcbc4"/><stop offset=".363" stop-color="#84beb9"/><stop offset=".622" stop-color="#a2b4b0"/><stop offset=".843" stop-color="#b4aeab"/><stop offset="1" stop-color="#bbaca9"/></linearGradient></defs></svg>

<svg width="1920" height="1080" viewBox="0 0 1920 1080" fill="none" xmlns="http://www.w3.org/2000/svg">
<mask id="mask0_44_2008" style="mask-type:luminance" maskUnits="userSpaceOnUse" x="-347" y="-589" width="2614" height="1846">
<path d="M2266.11 -588.13H-347V1256.09H2266.11V-588.13Z" fill="white"/>
</mask>
<g mask="url(#mask0_44_2008)">
<path fill-rule="evenodd" clip-rule="evenodd" d="M2102.06 1091.89L1810.48 1085.87C1810.48 1085.87 1765.17 939.586 1765.37 883.767C1765.37 880.733 1765.52 877.98 1765.82 875.495C1769.42 845.633 1888.15 894.011 1984.06 961.823C2041.46 1002.39 2090.64 1049.94 2102.06 1091.89Z" fill="url(#paint0_linear_44_2008)"/>
<path fill-rule="evenodd" clip-rule="evenodd" d="M1765.37 1085.87H1510.77C1510.77 1085.87 1574.43 1011.99 1632.22 1001.28C1640.35 999.814 1648.38 999.537 1656.08 1000.92C1691.83 1007.3 1722.42 1034.14 1742.08 1056C1756.79 1072.31 1765.37 1085.87 1765.37 1085.87Z" fill="url(#paint1_linear_44_2008)"/>
<path opacity="0.6" fill-rule="evenodd" clip-rule="evenodd" d="M1561.37 1066.57C1562.9 1077 1572.44 1082.97 1586.33 1085.86H1510.77C1510.77 1085.86 1574.43 1011.99 1632.22 1001.28H1632.4C1632.4 1001.28 1554.48 1019.85 1561.37 1066.57Z" fill="#6B8EC1"/>
<path opacity="0.6" fill-rule="evenodd" clip-rule="evenodd" d="M1765.37 1085.86H1642.41C1688.51 1080.21 1737.54 1064.82 1740.14 1057.84C1740.54 1056.74 1741.22 1056.14 1742.07 1056C1756.79 1072.31 1765.37 1085.86 1765.37 1085.86Z" fill="#6B8EC1"/>
<path opacity="0.6" fill-rule="evenodd" clip-rule="evenodd" d="M2102.06 1091.89L1810.48 1085.87C1810.48 1085.87 1765.17 939.586 1765.37 883.767L1765.82 875.495C1765.82 875.495 1775.83 1044.75 1854.81 1066.57C1933.79 1088.39 2015.97 1046.95 2025.93 1024.85C2030.51 1014.66 2008.82 987.822 1984.06 961.819C2041.46 1002.39 2090.64 1049.94 2102.06 1091.89Z" fill="#6B8EC1"/>
<path opacity="0.6" fill-rule="evenodd" clip-rule="evenodd" d="M1791.49 1019.53C1791.49 1019.53 1903 950.209 1979.08 958.337L1993.86 968.882C1993.86 968.882 1892.67 936.848 1795.49 1034.22L1791.49 1019.53Z" fill="#6B8EC1"/>
<path opacity="0.6" fill-rule="evenodd" clip-rule="evenodd" d="M1603.01 1011.93C1603.01 1011.93 1692.95 1016.86 1752.49 1068.26L1745.92 1060.36C1745.92 1060.36 1672.85 1002.82 1608.48 1009.46L1603.01 1011.93Z" fill="#6B8EC1"/>
</g>
<defs>
<linearGradient id="paint0_linear_44_2008" x1="1933.72" y1="1091.88" x2="1933.72" y2="866.484" gradientUnits="userSpaceOnUse">
<stop stop-color="#D3D3DF"/>
<stop offset="0.4001" stop-color="#C6BEC2"/>
<stop offset="0.7505" stop-color="#BEB1B0"/>
<stop offset="1" stop-color="#BBACA9"/>
</linearGradient>
<linearGradient id="paint1_linear_44_2008" x1="1638.07" y1="1085.87" x2="1638.07" y2="1000.02" gradientUnits="userSpaceOnUse">
<stop stop-color="#4ECFC8"/>
<stop offset="0.0777" stop-color="#5BCBC4"/>
<stop offset="0.363" stop-color="#84BEB9"/>
<stop offset="0.6217" stop-color="#A2B4B0"/>
<stop offset="0.8427" stop-color="#B4AEAB"/>
<stop offset="1" stop-color="#BBACA9"/>
</linearGradient>
</defs>
</svg>
